X:416
T:Reel 416
M:4/4
K:Amix
L:1/8
AGEF GDB,D|EFDB, G,A,B,D|AGEF GFGE|DB,GB, B,A,A,2:|AGEF GFGE|DB,GB, AB,GB,|AGEF GFGD|B,CDB, EA,A,2|AGEF GFGE|DB,A,B, GB,FG|AGEF GABA|GEED B,A,A,2|EAAG EGDB,|DB,A,C DGG,D|EAAG EDB,D|EFDB, B,A,A,2|EAAG EGGD|B,DA,F G2ED|GABd AGBA|GEDB, B,A,A,2|
